svgs/sharp-duotone-solid/spinner.svg

<svg xmlns="http://www.w3.org/2000/svg" viewBox="0 0 512 512"><!--! Font Awesome Pro 7.1.0 by @fontawesome - https://fontawesome.com License - https://fontawesome.com/license (Commercial License) Copyright 2025 Fonticons, Inc. --><path opacity=".4" fill="currentColor" d="M41 403.1l67.9-67.9 67.9 67.9-67.9 67.9-67.9-67.9zM208 416l96 0 0 96-96 0 0-96zM335.2 108.9l67.9-67.9 67.9 67.9-67.9 67.9-67.9-67.9zm0 294.2l67.9-67.9 67.9 67.9-67.9 67.9-67.9-67.9zM416 208l96 0 0 96-96 0 0-96z"/><path fill="currentColor" d="M208 96l96 0 0-96-96 0 0 96zM0 208l0 96 96 0 0-96-96 0zm41-99.1l67.9 67.9 67.9-67.9-67.9-67.9-67.9 67.9z"/></svg>

<svg xmlns="http://www.w3.org/2000/svg" viewBox="0 0 512 512"><!--! Font Awesome Pro 6.7.2 by @fontawesome - https://fontawesome.com License - https://fontawesome.com/license (Commercial License) Copyright 2024 Fonticons, Inc. --><defs><style>.fa-secondary{opacity:.4}</style></defs><path class="fa-secondary" d="M41 403.1l67.9-67.9 67.9 67.9L108.9 471 41 403.1zM208 416l96 0 0 96-96 0 0-96zM335.2 108.9L403.1 41 471 108.9l-67.9 67.9-67.9-67.9zm0 294.2l67.9-67.9L471 403.1 403.1 471l-67.9-67.9zM416 208l96 0 0 96-96 0 0-96z"/><path class="fa-primary" d="M208 96l96 0 0-96L208 0l0 96zM0 208l0 96 96 0 0-96L0 208zm41-99.1l67.9 67.9 67.9-67.9L108.9 41 41 108.9z"/></svg>
